!!!COM:	Bach, Johann Sebastian
!!!OMV:	Sei Lob und Ehr dem h&ouml;chsten Gut
!!!OTL:	Sei Lob und Ehr dem h&ouml;chsten Gut
**recip	**kern	**fb	**kern	**kern	**kern	**kern	**kern	**kern
*	*part7	*part7	*part6	*part5	*part4	*part3	*part2	*part1
*	*staff7	*	*staff6	*staff5	*staff4	*staff3	*staff2	*staff1
*	*I"Continuo	*	*I"Voice	*I"Voice	*I"Voice	*I"Voice	*I"Horn in G	*I"Horn in G
*	*I'Cont.	*	*I'V	*I'V	*I'V	*I'V	*I'G Hn.	*I'G Hn.
*	*clefF4	*	*clefF4	*clefGv2	*clefG2	*clefG2	*clefG2	*clefG2
*	*Trd0c0	*	*	*	*	*	*	*
*	*k[f#]	*	*k[f#]	*k[f#]	*k[f#]	*k[f#]	*k[f#]	*k[f#]
*	*M4/4	*	*M4/4	*M4/4	*M4/4	*M4/4	*M4/4	*M4/4
4	4G	.	4G	4g	4b	4dd	4g	4dd
=2	=2	=2	=2	=2	=2	=2	=2	=2
8	8F#L	6	8F#L	4d	8aL	4dd	8aL	4dd
8	8EJ	.	8EJ	.	8gJ	.	8bJ	.
8	4D	6	4D	4A	4f#	4dd	4cc	4dd
8	.	7	.	.	.	.	.	.
8	4G	5	4G	8GL	4g	8ddL	4b	8ddL
8	.	6	.	8BJ	.	8eeJ	.	8eeJ
8	8AL	nr6	8AL	8AL	8cL	4ffn	8ccL	4ffn
8	8BJ	6 nr5	8BJ	8GJ	8dJ	.	8ddJ	.
=3	=3	=3	=3	=3	=3	=3	=3	=3
8	4c	.	4c	4c	8eL	4ee	8g	4ee
8	.	.	.	.	8fnJ	.	4cc	.
8	4G	4	4G	8d	4g	4dd	.	4dd
16	.	3	.	16eLL	.	.	8b	.
16	.	.	.	16fnJJ	.	.	.	.
4	4A;	.	4A;	4e;	4c;	4cc;	4a;	4cc;
8	4F#	6	4F#	4d	4a	8ddL	4a	8ddL
8	.	5	.	.	.	8ccJ	.	8ccJ
=4	=4	=4	=4	=4	=4	=4	=4	=4
8	4.G	5	4.G	8dL	4d	8bL	8gL	8bL
8	.	.	.	8cJ	.	8aJ	8d	8aJ
8	.	6	.	4B	8eL	8gL	8B	8gL
8	8F#	6	8F#	.	8f#J	8aJ	8dJ	8aJ
8	8EL	.	8EL	4e	8gL	4b	8gL	4b
16	8F#J	.	8F#J	.	8f#J	.	16aL	.
16	.	.	.	.	.	.	16bJJ	.
8	8GL	6 #4| 2	8GL	4A	4e	4cc#X	[4a	4cc#X
8	8AJ	.	8AJ	.	.	.	.	.
=	=	=	=	=	=	=	=	=
8	8F#L	6	8F#L	8A	4f#	4dd	8aL]	4dd
8	8B	.	8B	4d	.	.	8d	.
8	8G	6 5	8G	.	4g	4ee	8b	4ee
8	8AJ	#	8AJ	8c#X	.	.	8aJ	.
4	4D	.	4D	4d	4f#	4dd	4a	4dd
=5:|!	=5:|!	=5:|!	=5:|!	=5:|!	=5:|!	=5:|!	=5:|!	=5:|!
8	8GL	.	8GL	4d	8bL	4dd	8bL	4dd
8	8AJ	.	8AJ	.	8aJ	.	8cc#XJ	.
=6	=6	=6	=6	=6	=6	=6	=6	=6
!!pagebreak:original
8	8BL	6	8BL	8dL	4g	4gg	4dd	4gg
8	8c#XJ	6 5	8c#XJ	8eJ	.	.	.	.
8	4d	.	4d	8f#L	4dd	4ff#	8aL	4ff#
8	.	.	.	8gJ	.	.	8bJ	.
8	8AL	#	8AL	4a	8cc#XL	4ee	4cc#X	4ee
8	8BJ	.	8BJ	.	8bJ	.	.	.
4	4cn	4 2	4cn	4d	4a	4ff#	4dd	4ff#
=7	=7	=7	=7	=7	=7	=7	=7	=7
8	8BL	6	8BL	8dL	8bL	8ggL	4.dd	8ggL
8	8G	7 5	8GJ	8BJ	8ddJ	8ff#J	.	8ff#J
8	8A	4	4A	4e	4a	4ee	.	4ee
8	8AAJ	#	.	.	.	.	8cc#X	.
4	4D;	.	4D;	4f#;	4a;	4dd;	4a;	4dd;
8	8GL	.	8GL	8BL	8gL	4dd	4b	4dd
8	8F#J	6	8F#J	8AJ	8aJ	.	.	.
=8	=8	=8	=8	=8	=8	=8	=8	=8
8	4E	5	4E	4G	8bL	4gg	8bL	4gg
8	.	6	.	.	8ccnJ	.	8aJ	.
8	4BB	6 8	4BB	8gL	8bL	4dd	4g	4dd
8	.	5 7	.	8f#J	8aJ	.	.	.
8	8CL	.	8CL	4e	4g	4ee	4g	4ee
8	8DJ	.	8DJ	.	.	.	.	.
8	4E	5	4E	4e	4g	8bL	4g	8bL
8	.	6	.	.	.	8ccJ	.	8ccJ
=9	=9	=9	=9	=9	=9	=9	=9	=9
8	8F#L	6	8F#L	8dL	8f#L	4dd	8aL	4dd
8	8G#XJ	6 5	8G#XJ	8BJ	8eJ	.	8b	.
8	4A	5	4A	4A	8eL	4cc	8cc	4cc
8	.	6	.	.	8f#J	.	8dd#XJ	.
4	4E;	#	4E;	4B;	4g#X;	4b;	4ee;	4b;
8	4Gn	5 3	4Gn	8BL	4gn	4b	[4d	4b
8	.	.	.	8GJ	.	.	.	.
=10	=10	=10	=10	=10	=10	=10	=10	=10
!!pagebreak:original
8	8F#L	6	8F#L	4d	8aL	8aL	8dL]	8aL
8	8GJ	.	8GJ	.	8dJ	8bJ	8B	8bJ
8	8EL	6	8EL	8cL	8gL	4cc	8G	4cc
8	8F#J	6 5	8F#J	8AJ	8aJ	.	8dJ	.
8	8GL	.	8GL	4B	8d	4b	4.g	4b
8	8EJ	.	8EJ	.	4g	.	.	.
8	8CL	6 5	8CL	8cL	.	4a	.	4a
8	8DJ	.	8DJ	8AJ	8f#	.	8d	.
=11	=11	=11	=11	=11	=11	=11	=11	=11
16	4E	.	4E	4e	8gL	16eLL	16BLL	8.gL
16	.	.	.	.	.	16f#JJ	16dJ	.
16	.	.	.	.	8BJ	4g	[8gJ	.
16	.	.	.	.	.	.	.	16aJk
8	8CL	6 5	8CL	4A	8eL	.	8gL]	4a
32	8DJ	.	8DJ	.	8dJ	8f#	32dLL	.
32	.	.	.	.	.	.	32BJ	.
16	.	.	.	.	.	.	16dJJ	.
4	4GG;	.	4GG;	4B;	4d;	4g;	4B;	4g;
=||	=||	=||	=||	=||	=||	=||	=||	=||
*-	*-	*-	*-	*-	*-	*-	*-	*-
!!!system-decoration: s1,s2,s3,s4,s5,s6,s7
